flaticon/sport/ice-skating.svg

<svg xmlns="http://www.w3.org/2000/svg" width="32" height="32" viewBox="0 0 24 24">
    <path d="M 10.171875 4.675781 C 10.171875 4.449219 9.988281 4.269531 9.765625 4.269531 L 2.847656 4.269531 C 2.625 4.269531 2.441406 4.449219 2.441406 4.675781 C 2.441406 4.898438 2.625 5.082031 2.847656 5.082031 L 9.765625 5.082031 C 9.988281 5.082031 10.171875 4.902344 10.171875 4.675781 Z M 10.171875 4.675781"/>
    <path d="M 22.921875 18.589844 L 22.8125 18.511719 L 21.15625 18.511719 L 21.15625 18.0625 C 21.15625 17.183594 20.636719 16.390625 19.828125 16.039062 L 14.472656 13.71875 L 14.875 13.320312 L 12.574219 11.015625 L 11.800781 11.789062 L 11.800781 11.019531 L 10.984375 10.203125 L 10.984375 9.558594 L 12.613281 9.558594 L 12.613281 6.304688 L 10.984375 6.304688 L 10.984375 6.066406 L 11.800781 5.25 L 11.800781 4.304688 C 11.800781 3.613281 11.234375 3.046875 10.542969 3.046875 L 3.660156 3.046875 L 3.660156 1.828125 C 3.660156 1.15625 3.113281 0.605469 2.441406 0.605469 C 1.769531 0.605469 1.21875 1.15625 1.21875 1.828125 L 1.21875 3.386719 C 0.972656 3.613281 0.8125 3.941406 0.8125 4.304688 L 0.8125 4.851562 C 0.8125 5.109375 0.914062 5.351562 1.097656 5.535156 L 1.582031 6.019531 C 1.609375 6.046875 1.628906 6.089844 1.628906 6.128906 L 1.628906 12.171875 C 1.628906 12.214844 1.609375 12.253906 1.582031 12.285156 L 1.097656 12.769531 C 0.914062 12.949219 0.8125 13.195312 0.8125 13.453125 L 0.8125 17.230469 C 0.8125 18.226562 1.511719 19.054688 2.441406 19.265625 L 2.441406 20.542969 L 0 20.542969 L 0 23.390625 L 21.785156 23.390625 C 21.890625 23.390625 21.992188 23.371094 22.089844 23.332031 L 22.304688 23.246094 C 23.222656 22.878906 23.847656 22.078125 23.976562 21.097656 C 24.105469 20.121094 23.710938 19.183594 22.921875 18.589844 Z M 11.800781 12.941406 L 12.574219 12.167969 L 13.722656 13.320312 L 11.6875 15.355469 C 11.648438 15.394531 11.605469 15.429688 11.5625 15.457031 C 11.546875 15.46875 11.527344 15.472656 11.511719 15.484375 C 11.480469 15.5 11.453125 15.519531 11.421875 15.53125 C 11.378906 15.546875 11.335938 15.558594 11.292969 15.570312 C 11.285156 15.570312 11.277344 15.574219 11.269531 15.578125 C 11.238281 15.582031 11.203125 15.582031 11.171875 15.585938 C 11.152344 15.585938 11.132812 15.589844 11.113281 15.589844 C 11.09375 15.589844 11.074219 15.585938 11.054688 15.585938 C 11.023438 15.582031 10.992188 15.582031 10.957031 15.578125 C 10.949219 15.574219 10.941406 15.570312 10.933594 15.570312 C 10.890625 15.558594 10.847656 15.546875 10.808594 15.53125 C 10.773438 15.519531 10.746094 15.5 10.714844 15.484375 C 10.699219 15.472656 10.679688 15.46875 10.667969 15.457031 C 10.621094 15.429688 10.578125 15.394531 10.539062 15.355469 C 10.222656 15.035156 10.222656 14.519531 10.539062 14.203125 Z M 11.800781 7.117188 L 11.800781 8.746094 L 9.359375 8.746094 C 8.910156 8.746094 8.542969 8.378906 8.542969 7.929688 C 8.542969 7.480469 8.910156 7.117188 9.359375 7.117188 Z M 2.035156 1.828125 C 2.035156 1.601562 2.21875 1.421875 2.441406 1.421875 C 2.664062 1.421875 2.847656 1.601562 2.847656 1.828125 L 2.847656 3.046875 L 2.035156 3.046875 Z M 1.628906 13.453125 C 1.628906 13.414062 1.644531 13.371094 1.671875 13.34375 L 2.15625 12.859375 C 2.339844 12.675781 2.441406 12.433594 2.441406 12.171875 L 2.441406 8.746094 L 3.660156 8.746094 L 3.660156 7.929688 L 2.441406 7.929688 L 2.441406 7.117188 L 3.660156 7.117188 L 3.660156 6.304688 L 2.441406 6.304688 L 2.441406 6.128906 C 2.441406 5.871094 2.339844 5.628906 2.15625 5.441406 L 1.675781 4.960938 C 1.644531 4.933594 1.628906 4.890625 1.628906 4.851562 L 1.628906 4.304688 C 1.628906 4.058594 1.824219 3.863281 2.070312 3.863281 L 10.542969 3.863281 C 10.789062 3.863281 10.984375 4.058594 10.984375 4.304688 L 10.984375 4.914062 L 10.171875 5.726562 L 10.171875 6.304688 L 9.359375 6.304688 C 8.460938 6.304688 7.730469 7.035156 7.730469 7.929688 C 7.730469 8.828125 8.460938 9.558594 9.359375 9.558594 L 10.171875 9.558594 L 10.171875 10.542969 L 10.984375 11.355469 L 10.984375 12.605469 L 9.960938 13.628906 C 9.328125 14.261719 9.328125 15.296875 9.960938 15.929688 C 10.121094 16.089844 10.304688 16.207031 10.5 16.285156 C 10.605469 16.328125 10.710938 16.359375 10.820312 16.378906 C 11.328125 16.46875 11.871094 16.324219 12.265625 15.929688 L 13.855469 14.339844 L 19.503906 16.785156 C 20.015625 17.007812 20.34375 17.507812 20.34375 18.0625 L 20.34375 18.511719 L 8.265625 18.511719 L 4.128906 15.613281 L 1.628906 16.542969 Z M 20.34375 19.324219 L 20.34375 20.246094 C 20.34375 20.410156 20.210938 20.542969 20.046875 20.542969 L 15.867188 20.542969 L 15.867188 19.324219 Z M 13.019531 19.324219 L 13.019531 20.542969 L 5.289062 20.542969 L 5.289062 19.324219 Z M 2.425781 18.414062 C 2.398438 18.402344 2.371094 18.386719 2.34375 18.375 C 2.300781 18.351562 2.257812 18.332031 2.21875 18.304688 C 2.1875 18.285156 2.164062 18.265625 2.136719 18.246094 C 2.101562 18.21875 2.066406 18.191406 2.03125 18.160156 C 2.007812 18.136719 1.984375 18.109375 1.960938 18.085938 C 1.933594 18.054688 1.902344 18.019531 1.875 17.980469 C 1.855469 17.953125 1.839844 17.925781 1.820312 17.898438 C 1.796875 17.859375 1.773438 17.820312 1.753906 17.777344 C 1.742188 17.746094 1.726562 17.714844 1.714844 17.683594 C 1.699219 17.640625 1.683594 17.597656 1.671875 17.550781 C 1.664062 17.515625 1.65625 17.484375 1.648438 17.449219 C 1.648438 17.433594 1.648438 17.417969 1.644531 17.402344 L 4.011719 16.523438 L 6.847656 18.511719 L 2.90625 18.511719 C 2.820312 18.511719 2.738281 18.5 2.660156 18.484375 C 2.632812 18.480469 2.609375 18.46875 2.582031 18.464844 C 2.53125 18.449219 2.476562 18.433594 2.425781 18.414062 Z M 23.167969 20.992188 C 23.078125 21.675781 22.644531 22.234375 22.003906 22.492188 L 21.785156 22.578125 L 0.8125 22.578125 L 0.8125 21.359375 L 3.253906 21.359375 L 3.253906 19.324219 L 4.476562 19.324219 L 4.476562 21.359375 L 13.835938 21.359375 L 13.835938 19.324219 L 15.054688 19.324219 L 15.054688 21.359375 L 20.046875 21.359375 C 20.660156 21.359375 21.15625 20.859375 21.15625 20.246094 L 21.15625 19.324219 L 22.535156 19.324219 C 23.015625 19.738281 23.253906 20.351562 23.167969 20.992188 Z M 23.167969 20.992188"/>
    <path d="M 8.136719 12.8125 C 8.136719 11.464844 7.042969 10.371094 5.695312 10.371094 C 4.351562 10.371094 3.253906 11.464844 3.253906 12.8125 C 3.253906 14.160156 4.351562 15.253906 5.695312 15.253906 C 7.042969 15.253906 8.136719 14.160156 8.136719 12.8125 Z M 4.070312 12.8125 C 4.070312 11.914062 4.796875 11.1875 5.695312 11.1875 C 6.59375 11.1875 7.324219 11.914062 7.324219 12.8125 C 7.324219 13.710938 6.59375 14.441406 5.695312 14.441406 C 4.796875 14.441406 4.070312 13.710938 4.070312 12.8125 Z M 4.070312 12.8125"/>
</svg>

<svg xmlns="http://www.w3.org/2000/svg" width="32" height="32" viewBox="0 0 24 24">
    <path d="M10.172 4.676a.406.406 0 0 0-.406-.406H2.848a.406.406 0 1 0 0 .812h6.918c.222 0 .406-.18.406-.406zm0 0"/>
    <path d="M22.922 18.59l-.11-.078h-1.656v-.45c0-.878-.52-1.671-1.328-2.023l-5.355-2.32.402-.399-2.3-2.304-.774.773v-.77l-.817-.816V9.56h1.63V6.305h-1.63v-.239l.817-.816v-.945c0-.692-.567-1.258-1.258-1.258H3.66V1.828c0-.672-.547-1.223-1.219-1.223-.671 0-1.222.551-1.222 1.223v1.559a1.25 1.25 0 0 0-.407.918v.547c0 .257.102.5.286.683l.484.485c.027.027.047.07.047.109v6.043c0 .043-.02.082-.047.113l-.484.485a.954.954 0 0 0-.286.683v3.777c0 .997.7 1.825 1.63 2.036v1.277H0v2.848h21.785c.106 0 .207-.02.305-.059l.215-.086a2.66 2.66 0 0 0 1.672-2.148 2.667 2.667 0 0 0-1.055-2.508zM11.8 12.94l.773-.773 1.149 1.152-2.036 2.035a.75.75 0 0 1-.124.102c-.016.012-.036.016-.051.027-.032.016-.059.036-.09.047a1.618 1.618 0 0 1-.129.04c-.008 0-.016.003-.023.007-.032.004-.067.004-.098.008-.02 0-.04.004-.059.004-.02 0-.039-.004-.058-.004-.032-.004-.063-.004-.098-.008-.008-.004-.016-.008-.023-.008a1.169 1.169 0 0 1-.125-.039c-.036-.011-.063-.031-.094-.047-.016-.011-.035-.015-.047-.027a.642.642 0 0 1-.129-.102.818.818 0 0 1 0-1.152zm0-5.824v1.63H9.359a.815.815 0 0 1 0-1.629zM2.035 1.828a.406.406 0 1 1 .813 0v1.219h-.813zM1.63 13.453a.16.16 0 0 1 .043-.11l.484-.484a.963.963 0 0 0 .285-.687V8.746h1.22V7.93H2.44v-.813h1.22v-.812H2.44v-.176c0-.258-.101-.5-.285-.688l-.48-.48a.148.148 0 0 1-.047-.11v-.546c0-.246.195-.442.441-.442h8.473c.246 0 .441.196.441.442v.61l-.812.812v.578h-.813A1.63 1.63 0 0 0 7.73 7.93c0 .898.73 1.629 1.63 1.629h.812v.984l.812.812v1.25L9.961 13.63a1.632 1.632 0 0 0 0 2.3c.16.16.344.278.539.356a1.632 1.632 0 0 0 1.766-.355l1.59-1.59 5.648 2.445c.512.223.84.723.84 1.277v.45H8.266l-4.137-2.899-2.5.93zm18.715 5.871v.922a.297.297 0 0 1-.297.297h-4.18v-1.219zm-7.324 0v1.219H5.29v-1.219zm-10.594-.91c-.028-.012-.055-.027-.082-.039-.043-.023-.086-.043-.125-.07-.031-.02-.055-.04-.082-.059a2.037 2.037 0 0 1-.106-.086l-.07-.074c-.027-.031-.059-.066-.086-.106-.02-.027-.035-.054-.055-.082-.023-.039-.047-.078-.066-.12-.012-.032-.027-.063-.04-.094-.015-.043-.03-.086-.042-.133l-.024-.102c0-.015 0-.031-.003-.047l2.367-.879 2.836 1.989H2.906a1.25 1.25 0 0 1-.246-.028c-.027-.004-.05-.015-.078-.02-.05-.015-.105-.03-.156-.05zm20.742 2.578a1.857 1.857 0 0 1-1.164 1.5l-.219.086H.812V21.36h2.442v-2.035h1.223v2.035h9.359v-2.035h1.219v2.035h4.992c.613 0 1.11-.5 1.11-1.113v-.922h1.378c.48.414.719 1.028.633 1.668zm0 0"/>
    <path d="M8.137 12.813a2.442 2.442 0 0 0-4.883 0 2.442 2.442 0 0 0 4.883 0zm-4.067 0a1.627 1.627 0 1 1 1.625 1.629c-.898 0-1.625-.731-1.625-1.63zm0 0"/>
</svg>
